X: 21231
T: THE ELECTRIC POLKA
C: Composed by J. Davidson
R: polka
B: K\"ohler's Violin Repository, v.2, 1885 p.123 #1
F: http://www.archive.org/details/klersviolinrepos02rugg
Z: 2012 John Chambers <jc:trillian.mit.edu>
M: 2/4
L: 1/16
K: Bb
uF2 !segno!|\
(B3F) D>FB>d | g2f2 (=e2f2) |\
_e2d2 (=B2c2) | _B2A2 ((3GAGF2) |\
(B3F) D>FB>d | a2g2 (^f2g2) |
[1 (=f2e2) F>Ad>c | (u.B2u.A2u.G2u.F2) !segno!:|\
[2 (f2e2) F>Ad>c | [B2D2][B2D2][B2D2] |]\
z2 |\
u(.d3e) d2b2 | a2g2^f2g2 |
(d3.e) d2c2 | B2G2A2D2 |\
(D>G)G>A B4 | (G>c)c>d e4 |\
(d>c)B>A G2^F2 | A2G2 G4 |
(.d3.e) d2b2 | a2g2^f2g2 |\
(.d3.e) d2c2 | B2G2A2D2 |\
(D>G)G>A B4 | (G>c)c>d e4 |
(d>c)BA G2^F2 | (u.G2u.F2u.F2) "^D.C."|]\
K: Eb
z2 |\
v(E3G) BGEG | (B4 g4) |\
(E3G) BGEc | B2=A2 _A4 |
(a3f) dBAF | (D4 c4) |\
(d3c) BAGF | c2=A2 B4 |\
(E3G) BGEG | (B4 g4) |
(.=e3.f)g2a2 | a2c2 c4 |\
(.f3.g) (ag)fe | (.d3.e) (fe)dc |\
(.B3.A) (GF)ED | F2E2E2 "_D.C."|]

%%sep 2 1 500

